public/icons/picto-confort.svg

<svg fill="none" height="56" viewBox="0 0 63 56" width="63" xmlns="http://www.w3.org/2000/svg" xmlns:xlink="http://www.w3.org/1999/xlink"><clipPath id="a"><path d="m0 0h63v56h-63z"/></clipPath><g clip-path="url(#a)"><path d="m4.20607 49.0822h-3.12404" stroke="#d3ac2f" stroke-linecap="round" stroke-miterlimit="10" stroke-width="2.5"/><path d="m13 25 19-16.5 22 16.5v24h-41z" fill="#efc73f"/><circle cx="50" cy="44" fill="#4550e5" r="11"/><g stroke="#d3ac2f" stroke-width="2.5"><path d="m13.6992 48.9438v-21.0821" stroke-linejoin="round"/><path d="m29.2427 48.9437v-17.6405h-8.2818v17.6405" stroke-linejoin="round"/><path d="m31.8451 1.08093h.0087l26.9827 23.67637-3.2106 3.6319-23.7721-20.84872-23.77213 20.84872-3.21058-3.6319z" stroke-linecap="round" stroke-linejoin="round"/><path d="m18.9512 7.49717v-3.38975h-5.1231v8.18038" stroke-miterlimit="10"/><path d="m35.2311 49.0822h-26.52407" stroke-linecap="round" stroke-linejoin="round"/><path d="m43.4507 34.7622c2.1861-1.7616 4.9489-2.6497 7.7529-2.4921 2.8041.1576 5.4497 1.3496 7.4244 3.3451 1.9748 1.9955 3.1379 4.6524 3.2641 7.4559s-.7935 5.5541-2.5809 7.7187-4.3153 3.5892-7.0939 3.9977c-2.7785.4085-5.6099-.2281-7.9455-1.7865-2.3357-1.5583-4.0093-3.9276-4.6966-6.6486s-.3394-5.6001.9764-8.0794" stroke-linecap="round" stroke-linejoin="round"/><path d="m44.5586 42.8906 4.0586 5.6121 7.4856-8.9326" stroke-linecap="round" stroke-linejoin="round"/></g></g></svg>

<svg width="63" height="56" viewBox="0 0 63 56" fill="none" xmlns="http://www.w3.org/2000/svg">
<g clip-path="url(#clip0_2125_26920)">
<path d="M4.20607 49.0822H1.08203" stroke="#D3AC2F" stroke-width="2.5" stroke-miterlimit="10" stroke-linecap="round"/>
<path d="M13 25L32 8.5L54 25V49H13V25Z" fill="#EFC73F"/>
<circle cx="50" cy="44" r="11" fill="#4550E5"/>
<path d="M13.6992 48.9438V27.8617" stroke="#D3AC2F" stroke-width="2.5" stroke-linejoin="round"/>
<path d="M29.2427 48.9437V31.3032H20.9609V48.9437" stroke="#D3AC2F" stroke-width="2.5" stroke-linejoin="round"/>
<path d="M31.8451 1.08093H31.8538L58.8365 24.7573L55.6259 28.3892L31.8538 7.54048L8.08167 28.3892L4.87109 24.7573L31.8451 1.08093Z" stroke="#D3AC2F" stroke-width="2.5" stroke-linecap="round" stroke-linejoin="round"/>
<path d="M18.9512 7.49717V4.10742H13.8281V12.2878" stroke="#D3AC2F" stroke-width="2.5" stroke-miterlimit="10"/>
<path d="M35.2311 49.0822H8.70703" stroke="#D3AC2F" stroke-width="2.5" stroke-linecap="round" stroke-linejoin="round"/>
<path d="M43.4507 34.7622C45.6368 33.0006 48.3996 32.1125 51.2036 32.2701C54.0077 32.4277 56.6533 33.6197 58.628 35.6152C60.6028 37.6107 61.7659 40.2676 61.8921 43.0711C62.0183 45.8746 61.0986 48.6252 59.3112 50.7898C57.5238 52.9544 54.9959 54.379 52.2173 54.7875C49.4388 55.196 46.6074 54.5594 44.2718 53.001C41.9361 51.4427 40.2625 49.0734 39.5752 46.3524C38.8879 43.6314 39.2358 40.7523 40.5516 38.273" stroke="#D3AC2F" stroke-width="2.5" stroke-linecap="round" stroke-linejoin="round"/>
<path d="M44.5586 42.8906L48.6172 48.5027L56.1028 39.5701" stroke="#D3AC2F" stroke-width="2.5" stroke-linecap="round" stroke-linejoin="round"/>
</g>
<defs>
<clipPath id="clip0_2125_26920">
<rect width="63" height="56" fill="white"/>
</clipPath>
</defs>
</svg>
